img/telegram.svg

<svg xmlns="http://www.w3.org/2000/svg"  viewBox="0 0 50 50" width="50px" height="50px"><path d="M 44.376953 5.9863281 C 43.889905 6.0076957 43.415817 6.1432497 42.988281 6.3144531 C 42.565113 6.4845113 40.128883 7.5243408 36.53125 9.0625 C 32.933617 10.600659 28.256963 12.603668 23.621094 14.589844 C 14.349356 18.562196 5.2382813 22.470703 5.2382812 22.470703 L 5.3046875 22.445312 C 5.3046875 22.445312 4.7547875 22.629122 4.1972656 23.017578 C 3.9185047 23.211806 3.6186028 23.462555 3.3730469 23.828125 C 3.127491 24.193695 2.9479735 24.711788 3.015625 25.259766 C 3.2532479 27.184511 5.2480469 27.730469 5.2480469 27.730469 L 5.2558594 27.734375 L 14.158203 30.78125 C 14.385177 31.538434 16.858319 39.792923 17.402344 41.541016 C 17.702797 42.507484 17.984013 43.064995 18.277344 43.445312 C 18.424133 43.635633 18.577962 43.782915 18.748047 43.890625 C 18.815627 43.933415 18.8867 43.965525 18.957031 43.994141 C 18.958531 43.994806 18.959437 43.99348 18.960938 43.994141 C 18.969579 43.997952 18.977708 43.998295 18.986328 44.001953 L 18.962891 43.996094 C 18.979231 44.002694 18.995359 44.013801 19.011719 44.019531 C 19.043456 44.030655 19.062905 44.030268 19.103516 44.039062 C 20.123059 44.395042 20.966797 43.734375 20.966797 43.734375 L 21.001953 43.707031 L 26.470703 38.634766 L 35.345703 45.554688 L 35.457031 45.605469 C 37.010484 46.295216 38.415349 45.910403 39.193359 45.277344 C 39.97137 44.644284 40.277344 43.828125 40.277344 43.828125 L 40.310547 43.742188 L 46.832031 9.7519531 C 46.998903 8.9915162 47.022612 8.334202 46.865234 7.7402344 C 46.707857 7.1462668 46.325492 6.6299361 45.845703 6.34375 C 45.365914 6.0575639 44.864001 5.9649605 44.376953 5.9863281 z M 44.429688 8.0195312 C 44.627491 8.0103707 44.774102 8.032983 44.820312 8.0605469 C 44.866523 8.0881109 44.887272 8.0844829 44.931641 8.2519531 C 44.976011 8.419423 45.000036 8.7721605 44.878906 9.3242188 L 44.875 9.3359375 L 38.390625 43.128906 C 38.375275 43.162926 38.240151 43.475531 37.931641 43.726562 C 37.616914 43.982653 37.266874 44.182554 36.337891 43.792969 L 26.632812 36.224609 L 26.359375 36.009766 L 26.353516 36.015625 L 23.451172 33.837891 L 39.761719 14.648438 A 1.0001 1.0001 0 0 0 38.974609 13 A 1.0001 1.0001 0 0 0 38.445312 13.167969 L 14.84375 28.902344 L 5.9277344 25.849609 C 5.9277344 25.849609 5.0423771 25.356927 5 25.013672 C 4.99765 24.994652 4.9871961 25.011869 5.0332031 24.943359 C 5.0792101 24.874869 5.1948546 24.759225 5.3398438 24.658203 C 5.6298218 24.456159 5.9609375 24.333984 5.9609375 24.333984 L 5.9941406 24.322266 L 6.0273438 24.308594 C 6.0273438 24.308594 15.138894 20.399882 24.410156 16.427734 C 29.045787 14.44166 33.721617 12.440122 37.318359 10.902344 C 40.914175 9.3649615 43.512419 8.2583658 43.732422 8.1699219 C 43.982886 8.0696253 44.231884 8.0286918 44.429688 8.0195312 z M 33.613281 18.792969 L 21.244141 33.345703 L 21.238281 33.351562 A 1.0001 1.0001 0 0 0 21.183594 33.423828 A 1.0001 1.0001 0 0 0 21.128906 33.507812 A 1.0001 1.0001 0 0 0 20.998047 33.892578 A 1.0001 1.0001 0 0 0 20.998047 33.900391 L 19.386719 41.146484 C 19.35993 41.068197 19.341173 41.039555 19.3125 40.947266 L 19.3125 40.945312 C 18.800713 39.30085 16.467362 31.5161 16.144531 30.439453 L 33.613281 18.792969 z M 22.640625 35.730469 L 24.863281 37.398438 L 21.597656 40.425781 L 22.640625 35.730469 z"/></svg>

<svg xmlns="http://www.w3.org/2000/svg" xmlns:xlink="http://www.w3.org/1999/xlink" viewBox="0,0,256,256" width="50px" height="50px" fill-rule="nonzero"><g fill="#ffffff" fill-rule="nonzero" stroke="none" stroke-width="1" stroke-linecap="butt" stroke-linejoin="miter" stroke-miterlimit="10" stroke-dasharray="" stroke-dashoffset="0" font-family="none" font-weight="none" font-size="none" text-anchor="none" style="mix-blend-mode: normal"><g transform="scale(5.12,5.12)"><path d="M44.37695,5.98633c-0.48705,0.02137 -0.96114,0.15692 -1.38867,0.32813c-0.42317,0.17006 -2.8594,1.20989 -6.45703,2.74805c-3.59763,1.53816 -8.27429,3.54117 -12.91016,5.52734c-9.27174,3.97235 -18.38281,7.88086 -18.38281,7.88086l0.06641,-0.02539c0,0 -0.5499,0.18381 -1.10742,0.57227c-0.27876,0.19423 -0.57866,0.44498 -0.82422,0.81055c-0.24556,0.36557 -0.42507,0.88366 -0.35742,1.43164c0.23762,1.92475 2.23242,2.4707 2.23242,2.4707l0.00781,0.00391l8.90234,3.04688c0.22697,0.75718 2.70012,9.01167 3.24414,10.75977c0.30045,0.96647 0.58167,1.52398 0.875,1.9043c0.14679,0.19032 0.30062,0.3376 0.4707,0.44531c0.06758,0.04279 0.13865,0.0749 0.20898,0.10352c0.0015,0.00066 0.00241,-0.00066 0.00391,0c0.00864,0.00381 0.01677,0.00415 0.02539,0.00781l-0.02344,-0.00586c0.01634,0.0066 0.03247,0.01771 0.04883,0.02344c0.03174,0.01112 0.05119,0.01074 0.0918,0.01953c1.01954,0.35598 1.86328,-0.30469 1.86328,-0.30469l0.03516,-0.02734l5.46875,-5.07227l8.875,6.91992l0.11133,0.05078c1.55345,0.68975 2.95832,0.30493 3.73633,-0.32812c0.77801,-0.63306 1.08398,-1.44922 1.08398,-1.44922l0.0332,-0.08594l6.52148,-33.99023c0.16687,-0.76044 0.19058,-1.41775 0.0332,-2.01172c-0.15738,-0.59397 -0.53974,-1.1103 -1.01953,-1.39648c-0.47979,-0.28619 -0.9817,-0.37879 -1.46875,-0.35742zM44.42969,8.01953c0.1978,-0.00916 0.34441,0.01345 0.39062,0.04102c0.04621,0.02756 0.06696,0.02394 0.11133,0.19141c0.04437,0.16747 0.0684,0.52021 -0.05273,1.07227l-0.00391,0.01172l-6.48437,33.79297c-0.01535,0.03402 -0.15047,0.34662 -0.45898,0.59766c-0.31473,0.25609 -0.66477,0.45599 -1.59375,0.06641l-9.70508,-7.56836l-0.27344,-0.21484l-0.00586,0.00586l-2.90234,-2.17773l16.31055,-19.18945c0.25603,-0.30045 0.31139,-0.72339 0.1413,-1.0796c-0.17009,-0.35622 -0.5338,-0.57906 -0.92841,-0.56883c-0.18875,0.0049 -0.37226,0.06314 -0.5293,0.16797l-23.60156,15.73438l-8.91602,-3.05273c0,0 -0.88536,-0.49268 -0.92773,-0.83594c-0.00235,-0.01902 -0.0128,-0.0018 0.0332,-0.07031c0.04601,-0.06849 0.16165,-0.18413 0.30664,-0.28516c0.28998,-0.20204 0.62109,-0.32422 0.62109,-0.32422l0.0332,-0.01172l0.0332,-0.01367c0,0 9.11155,-3.90871 18.38281,-7.88086c4.63563,-1.98607 9.31146,-3.98761 12.9082,-5.52539c3.59582,-1.53738 6.19406,-2.64398 6.41406,-2.73242c0.25046,-0.1003 0.49946,-0.14123 0.69727,-0.15039zM33.61328,18.79297l-12.36914,14.55273l-0.00586,0.00586c-0.01931,0.02325 -0.03756,0.04736 -0.05469,0.07227c-0.01962,0.02706 -0.03787,0.05509 -0.05469,0.08398c-0.06949,0.11795 -0.11403,0.24891 -0.13086,0.38477c-0.00001,0.0026 -0.00001,0.00521 0,0.00781l-1.61133,7.24609c-0.02679,-0.07829 -0.04555,-0.10693 -0.07422,-0.19922v-0.00195c-0.51179,-1.64446 -2.84514,-9.42921 -3.16797,-10.50586zM22.64063,35.73047l2.22266,1.66797l-3.26562,3.02734z"></path></g></g></svg>
